X:8
T:Valse des roses
O:France
R:Valse
M:3/4
L:1/4
Q:3/4=70
K:C
g2d | B>cd | g2d | B>cd | e2d | c2B | A3 | G3 ::
B>cd | e2d | B>cd | e2d | e2d | c2B | A3 | G3 :|

%%footer $D   Galouvielle-MBe 2006 \n-- (France)
